X:1
T:Title
%%score [ ( 1 2 ) ( 3 4 ) ] { ( 5 6 ) | ( 7 8 ) }
L:1/8
Q:1/4=120
M:4/4
K:C
V:1 treble nm="Midi_74"
V:2 treble 
V:3 bass nm="Midi_74"
V:4 bass 
V:5 treble nm="Org."
V:6 treble 
V:7 bass 
V:8 bass 
V:1
 (E6 F2) | G4 e4 | d8 || c8 | B4 (G3 A) | B4 A4 | G8 || (!courtesy!=F6 G2) | A4 f4 | e8 || d8 | %11
 c4"^William Henry Havergal\n(1793-1870)" (c3 d) | e4 d4 | c8 |] %14
V:2
 C8 | (D2 G2) G4 | G8 || (C6 D2) | D4 E4 | G4 ^F4 | G8 || D8 | E4 D4 | ^C8 || F8 | E4 A4 | %12
 G4 (G2 F2) | E8 |] %14
V:3
 G,8 | D4 C4 | B,8 || (G,6 A,2) | B,4 B,4 | D4 (D2 C2) | B,8 || A,8 | A,4 A,4 | A,8 || (A,6 B,2) | %11
 C4 C4 | C4 B,4 | C8 |] %14
V:4
 C,8 | B,,4 C,4 | G,,8 || (E,6 F,2) | G,4 E,4 | D,4 D,4 | G,,8 || D,8 | ^C,4 D,4 | A,,8 || %10
 (F,6 G,2) | A,4 F,4 | G,4 G,,4 | C,8 |] %14
V:5
 E6 F2 | G4 e4 | d8 || c8 | B4 G3 A | B4 [^FA]4 | G8 || !courtesy!=F6 G2 | A4 f4 | e8 || d8 | %11
 c4 c3 d | e4 [Bd]4 | c8 |] %14
V:6
 C8 | D4 [Gc]4 | [GB]8 || C6 D2 | D4 E4 | [DG]4 D2 C2 | [B,G]8 || D8 | E4 [Ad]4 | [A^c]8 || [FA]8 | %11
 [EA]4 A4 | [Gc]4 G2 F2 | E8 |] %14
V:7
 x8 | x8 | x8 || G,6 A,2 | B,4 B,4 | x8 | x8 || x8 | x8 | x8 || x8 | x8 | x8 | x8 |] %14
V:8
 C,8 | B,,4 C,4 | G,,8 || E,6 F,2 | G,4 E,4 | D,4 D,4 | G,,8 || D,8 | ^C,4 D,4 | A,,8 || F,6 G,2 | %11
 A,4 F,4 | G,4 G,,4 | C,8 |] %14

